X:1
T:The Glin Cottage
R:polka
M:2/4
L:1/8
K:Ador
d|:eA Bd|e>d Bd|eA BA|G>A Bd|
|eA Bd|e/f/e/d/ Bd|ea e/f/e/d/|BA AB/d/:|
|:e>d ef/g/|ae fe|d>B de/f/|ge f/e/d|
|e>d ef/g/|ae f/e/d|ea e/f/e/d/|BA AB/d/:|